icons/svg/landuse/construction.svg

<?xml version="1.0" encoding="UTF-8" standalone="no"?>
<!-- Created with Inkscape (http://www.inkscape.org/) -->

<svg
   xmlns:dc="http://purl.org/dc/elements/1.1/"
   xmlns:cc="http://creativecommons.org/ns#"
   xmlns:rdf="http://www.w3.org/1999/02/22-rdf-syntax-ns#"
   xmlns:svg="http://www.w3.org/2000/svg"
   xmlns="http://www.w3.org/2000/svg"
   xmlns:sodipodi="http://sodipodi.sourceforge.net/DTD/sodipodi-0.dtd"
   xmlns:inkscape="http://www.inkscape.org/namespaces/inkscape"
   version="1.0"
   width="580"
   height="580"
   id="svg2"
   sodipodi:version="0.32"
   inkscape:version="0.91 r"
   sodipodi:docname="construction.svg"
   inkscape:output_extension="org.inkscape.output.svg.inkscape">
  <metadata
     id="metadata2975">
    <rdf:RDF>
      <cc:Work
         rdf:about="">
        <dc:format>image/svg+xml</dc:format>
        <dc:type
           rdf:resource="http://purl.org/dc/dcmitype/StillImage" />
        <cc:license
           rdf:resource="http://web.resource.org/cc/PublicDomain" />
        <dc:language>en</dc:language>
        <dc:title></dc:title>
      </cc:Work>
    </rdf:RDF>
  </metadata>
  <sodipodi:namedview
     inkscape:window-height="1004"
     inkscape:window-width="1920"
     inkscape:pageshadow="2"
     inkscape:pageopacity="0.0"
     guidetolerance="10.0"
     gridtolerance="10.0"
     objecttolerance="10.0"
     borderopacity="1.0"
     bordercolor="#666666"
     pagecolor="#ffffff"
     id="base"
     inkscape:zoom="0.23041928"
     inkscape:cx="840.45029"
     inkscape:cy="656.40329"
     inkscape:window-x="1680"
     inkscape:window-y="0"
     inkscape:current-layer="svg2"
     showgrid="false"
     inkscape:window-maximized="1" />
  <defs
     id="defs4">
    <inkscape:perspective
       sodipodi:type="inkscape:persp3d"
       inkscape:vp_x="0 : 290 : 1"
       inkscape:vp_y="0 : 1000 : 0"
       inkscape:vp_z="580 : 290 : 1"
       inkscape:persp3d-origin="290 : 193.33333 : 1"
       id="perspective2441" />
    <inkscape:perspective
       id="perspective3452"
       inkscape:persp3d-origin="30 : 20 : 1"
       inkscape:vp_z="60 : 30 : 1"
       inkscape:vp_y="0 : 1000 : 0"
       inkscape:vp_x="0 : 30 : 1"
       sodipodi:type="inkscape:persp3d" />
    <symbol
       viewBox="244.5 110 489 219.9"
       id="symbol-university">
      <path
         id="path4460"
         d="M79,43l57,119c0,0,21-96,104-96s124,106,124,106l43-133l82-17L0,17L79,43z" />
      <path
         id="path4462"
         d="M94,176l-21,39"
         stroke-width="20"
         stroke="#000000"
         fill="none" />
      <path
         id="path4464"
         d="M300,19c0,10.5-22.6,19-50.5,19S199,29.5,199,19s22.6-19,50.5-19S300,8.5,300,19z" />
      <path
         id="path4466"
         d="M112,216l-16-38L64,88c0,0-9-8-4-35s16-24,16-24"
         stroke-width="20"
         stroke="#000000"
         ill="none" />
    </symbol>
    <inkscape:perspective
       id="perspective4471"
       inkscape:persp3d-origin="372.04724 : 350.78739 : 1"
       inkscape:vp_z="744.09448 : 526.18109 : 1"
       inkscape:vp_y="0 : 1000 : 0"
       inkscape:vp_x="0 : 526.18109 : 1"
       sodipodi:type="inkscape:persp3d" />
    <inkscape:perspective
       id="perspective4668"
       inkscape:persp3d-origin="6 : 4 : 1"
       inkscape:vp_z="12 : 6 : 1"
       inkscape:vp_y="0 : 1000 : 0"
       inkscape:vp_x="0 : 6 : 1"
       sodipodi:type="inkscape:persp3d" />
  </defs>
  <g
     id="g1327">
    <path
       d="M 66.275,1.768 C 24.94,1.768 1.704,23.139 1.704,66.804 L 1.704,516.927 C 1.704,557.771 22.599,579.156 63.896,579.156 L 515.92,579.156 C 557.227,579.156 578.149,558.841 578.149,516.927 L 578.149,66.804 C 578.149,24.203 557.227,1.768 514.628,1.768 C 514.624,1.768 66.133,1.625 66.275,1.768 z "
       style="fill:#111;stroke:#eee;stroke-width:3.40799999"
       id="path1329" />
  </g>
  <path
     inkscape:connector-curvature="0"
     style="fill:none;stroke:#ffffff;stroke-width:24.86344528;stroke-linecap:round;stroke-linejoin:round;stroke-miterlimit:4;stroke-dasharray:none;stroke-opacity:1"
     d="m 158.24745,531.0181 7.10495,-319.95243 3.76418,-163.063855 34.72518,62.258975 7.22682,100.81034 6.87117,319.85628"
     id="path5183"
     sodipodi:nodetypes="cccccc" />
  <path
     inkscape:connector-curvature="0"
     style="fill:none;stroke:#ffffff;stroke-width:19.76300049;stroke-linecap:round;stroke-linejoin:round;stroke-miterlimit:4;stroke-dasharray:none;stroke-opacity:1"
     d="m 102.12257,156.77539 -1.6333,40.25531 125.43119,-0.0903 212.44819,-43.89455 z"
     id="path5189"
     sodipodi:nodetypes="ccccc" />
  <path
     inkscape:connector-curvature="0"
     style="fill:none;stroke:#ffffff;stroke-width:9.36824322;stroke-linecap:butt;stroke-linejoin:miter;stroke-miterlimit:4;stroke-dasharray:none;stroke-opacity:1"
     d="m 155.79486,501.4323 59.5378,-47.11617 -51.28095,-54.75664 53.75794,-50.93641 -52.33982,-47.62914 46.03175,-47.94974 -46.41535,-36.82539"
     id="path5191"
     sodipodi:nodetypes="cccc" />
  <path
     inkscape:connector-curvature="0"
     style="fill:none;stroke:#ffffff;stroke-width:10.45699978;stroke-linecap:round;stroke-linejoin:round;stroke-miterlimit:4;stroke-dasharray:none;stroke-opacity:1"
     d="m 436.76356,152.4219 0,79.7598"
     id="path5193" />
  <path
     inkscape:connector-curvature="0"
     style="fill:none;stroke:#ffffff;stroke-width:19.8907547px;stroke-linecap:round;stroke-linejoin:round;stroke-opacity:1"
     d="m 435.52038,220.06139 c 0,0 6.40065,24.91238 3.72952,38.53834 -2.67113,13.62596 -41.02468,-4.97268 -41.02468,-4.97268"
     id="path5199"
     sodipodi:nodetypes="czz" />
  <rect
     style="color:#000000;display:inline;overflow:visible;visibility:visible;opacity:1;fill:#ffffff;fill-opacity:1;fill-rule:nonzero;stroke:none;stroke-width:10.45699978;stroke-linecap:butt;stroke-linejoin:miter;stroke-miterlimit:4;stroke-dasharray:none;stroke-dashoffset:0;stroke-opacity:1;marker:none;enable-background:accumulate"
     id="rect4148"
     width="113.54497"
     height="50.012581"
     x="115.31158"
     y="493.73303"
     ry="10.716982" />
  <path
     style="fill:#ffffff;fill-opacity:1;stroke:none"
     d="m 329.97734,255.62277 0,288.80379 159.41485,0 0,-250.8276 -10.90649,0 -4.21957,26.08466 -31.83863,0 -6.90476,-9.20635 -30.30423,0 -5.75397,9.20635 -52.93651,0 -4.08669,-35.11962 z m 29.01011,99.11528 28.9699,0 0,29.17661 -28.9699,0 z m 72.42472,0 28.96989,0 0,29.17661 -28.96989,0 z m -72.42472,58.35323 28.9699,0 0,29.1766 -28.9699,0 z m 72.42472,0 28.96989,0 0,29.1766 -28.96989,0 z m -72.42472,58.39375 28.9699,0 0,29.1766 -28.9699,0 z m 72.42472,0 28.96989,0 0,29.1766 -28.96989,0 z"
     id="path3-3"
     inkscape:connector-curvature="0"
     sodipodi:nodetypes="ccccccccccccccccccccccccccccccccccccccccccc" />
</svg>

<svg width="580" height="580" viewBox="0 0 580 580" fill="none" xmlns="http://www.w3.org/2000/svg">
<g clip-path="url(#clip0)">
<path d="M66.2751 1.76802C24.9401 1.76802 1.7041 23.139 1.7041 66.804V516.927C1.7041 557.771 22.5991 579.156 63.8961 579.156H515.92C557.227 579.156 578.149 558.841 578.149 516.927V66.804C578.149 24.203 557.227 1.76802 514.628 1.76802C514.624 1.76802 66.1331 1.62502 66.2751 1.76802Z" fill="#111111" stroke="#EEEEEE" stroke-width="3.408"/>
<path d="M158.248 531.018L165.353 211.066L169.117 48.0018L203.842 110.261L211.069 211.071L217.94 530.927" stroke="white" stroke-width="24.8634" stroke-linecap="round" stroke-linejoin="round"/>
<path d="M102.123 156.775L100.489 197.031L225.92 196.94L438.369 153.046L102.123 156.775Z" stroke="white" stroke-width="19.763" stroke-linecap="round" stroke-linejoin="round"/>
<path d="M155.795 501.432L215.333 454.316L164.052 399.559L217.81 348.623L165.47 300.994L211.502 253.044L165.086 216.219" stroke="white" stroke-width="9.36824"/>
<path d="M436.764 152.422V232.182" stroke="white" stroke-width="10.457" stroke-linecap="round" stroke-linejoin="round"/>
<path d="M435.52 220.061C435.52 220.061 441.921 244.974 439.25 258.6C436.579 272.226 398.225 253.627 398.225 253.627" stroke="white" stroke-width="19.8908" stroke-linecap="round" stroke-linejoin="round"/>
<path d="M218.14 493.733H126.029C120.11 493.733 115.312 498.531 115.312 504.45V533.029C115.312 538.947 120.11 543.746 126.029 543.746H218.14C224.058 543.746 228.856 538.947 228.856 533.029V504.45C228.856 498.531 224.058 493.733 218.14 493.733Z" fill="white"/>
<path d="M329.977 255.623V544.427H489.392V293.599H478.486L474.266 319.684H442.427L435.523 310.477H405.218L399.465 319.684H346.528L342.441 284.564L329.977 255.623ZM358.987 354.738H387.957V383.915H358.987V354.738ZM431.412 354.738H460.382V383.915H431.412V354.738ZM358.987 413.091H387.957V442.268H358.987V413.091ZM431.412 413.091H460.382V442.268H431.412V413.091ZM358.987 471.485H387.957V500.662H358.987V471.485ZM431.412 471.485H460.382V500.662H431.412V471.485Z" fill="white"/>
</g>
<defs>
<clipPath id="clip0">
<path d="M0 0H580V580H0V0Z" fill="white"/>
</clipPath>
</defs>
</svg>
